X: 19640
T: Jean Ireland
R: jig
M: 6/8
K: Amajor
d|AEE AFF|AEE EAB|cff ecA|cBB BcB|
AEE FDD|EFE EAB|cff ecB|cAA A2:|
g|aAA fAA|efe efg|aAA fAA|edc B2 A|
aAA fAA|efe efg|aec BAB|cAA A2 g|
aAA fAA|efe efg|aAA fed|cBA B2 c|
AEE FDD|EFE EAB|cef ecB|fAA A2||

